img/svg/playmarket.svg

<svg width="24" height="24" viewBox="0 0 24 24" fill="none" xmlns="http://www.w3.org/2000/svg">
<mask id="path-2-inside-1_0:658" fill="white">
<path d="M4.09967 22.0001C3.83055 22.0001 3.59572 21.9126 3.4126 21.7474C3.59572 21.9126 3.83117 22.0001 4.10029 22.0001C4.12362 22.0001 4.14734 21.9995 4.17136 21.9983C4.14703 21.9995 4.123 22.0001 4.09967 22.0001ZM4.09998 21.8862C3.83086 21.8865 3.59603 21.7987 3.41291 21.6335L13.0461 12L16.2579 15.2123L4.97111 21.6253C4.65883 21.8024 4.36296 21.8862 4.09998 21.8862ZM3.41019 21.7453C3.39316 21.7298 3.37644 21.7134 3.36004 21.6964L3.41019 21.7453Z"/>
<path d="M4.10029 22.0001C3.83117 22.0001 3.59572 21.9126 3.4126 21.7474C3.41198 21.7468 3.41105 21.7459 3.41019 21.7453L3.36004 21.6964C3.35848 21.6948 3.357 21.693 3.35514 21.6912L3.41291 21.6335C3.59603 21.7987 3.83086 21.8865 4.09998 21.8862C4.36296 21.8862 4.65883 21.8024 4.97111 21.6253L16.2579 15.2123L16.3302 15.2847L4.97111 21.7389C4.68651 21.9002 4.41584 21.9843 4.17136 21.9983C4.14734 21.9995 4.12362 22.0001 4.10029 22.0001Z"/>
</mask>
<path d="M4.09967 22.0001C3.83055 22.0001 3.59572 21.9126 3.4126 21.7474C3.59572 21.9126 3.83117 22.0001 4.10029 22.0001C4.12362 22.0001 4.14734 21.9995 4.17136 21.9983C4.14703 21.9995 4.123 22.0001 4.09967 22.0001ZM4.09998 21.8862C3.83086 21.8865 3.59603 21.7987 3.41291 21.6335L13.0461 12L16.2579 15.2123L4.97111 21.6253C4.65883 21.8024 4.36296 21.8862 4.09998 21.8862ZM3.41019 21.7453C3.39316 21.7298 3.37644 21.7134 3.36004 21.6964L3.41019 21.7453Z" fill="white"/>
<path d="M4.10029 22.0001C3.83117 22.0001 3.59572 21.9126 3.4126 21.7474C3.41198 21.7468 3.41105 21.7459 3.41019 21.7453L3.36004 21.6964C3.35848 21.6948 3.357 21.693 3.35514 21.6912L3.41291 21.6335C3.59603 21.7987 3.83086 21.8865 4.09998 21.8862C4.36296 21.8862 4.65883 21.8024 4.97111 21.6253L16.2579 15.2123L16.3302 15.2847L4.97111 21.7389C4.68651 21.9002 4.41584 21.9843 4.17136 21.9983C4.14734 21.9995 4.12362 22.0001 4.10029 22.0001Z" fill="white"/>
<path d="M4.09998 21.8862V21.6134H4.09967L4.09998 21.8862ZM4.97111 21.6253L5.10562 21.8625L5.10584 21.8624L4.97111 21.6253ZM3.22989 21.9499C3.4671 22.1639 3.76922 22.2728 4.10029 22.2728V21.7274C3.89312 21.7274 3.72435 21.6613 3.59531 21.5449L3.22989 21.9499ZM4.10029 22.2728C4.12845 22.2728 4.15659 22.2721 4.18459 22.2707L4.15814 21.7259C4.13808 21.7269 4.11879 21.7274 4.10029 21.7274V22.2728ZM4.09967 21.6134C3.89314 21.6137 3.72494 21.5477 3.59562 21.431L3.23021 21.8359C3.46712 22.0497 3.76859 22.1593 4.1003 22.1589L4.09967 21.6134ZM16.1231 14.9752L4.83638 21.3882L5.10584 21.8624L16.3926 15.4495L16.1231 14.9752ZM4.83659 21.388C4.55521 21.5476 4.3054 21.6134 4.09998 21.6134V22.1589C4.42052 22.1589 4.76245 22.0571 5.10562 21.8625L4.83659 21.388ZM3.16963 21.8916L3.21978 21.9405L3.6006 21.55L3.55045 21.5011L3.16963 21.8916ZM3.4126 21.7474L3.02691 22.1331L3.0368 22.143L3.04719 22.1523L3.4126 21.7474ZM4.17136 21.9983L4.19748 22.5432L4.20254 22.5429L4.17136 21.9983ZM3.41291 21.6335L3.79861 22.0191L3.79861 22.0191L3.41291 21.6335ZM13.0461 12L13.4318 11.6143L13.0461 11.2286L12.6604 11.6143L13.0461 12ZM16.2579 15.2123L15.8721 15.598L15.8722 15.598L16.2579 15.2123ZM3.41019 21.7453L3.04337 22.149L3.06535 22.1689L3.08937 22.1864L3.41019 21.7453ZM3.36004 21.6964L3.75291 21.3178L3.74573 21.3107L3.36004 21.6964ZM3.35514 21.6912L2.96944 21.3055L2.57546 21.6995L2.97773 22.085L3.35514 21.6912ZM16.3302 15.2847L16.5996 15.7589L17.2221 15.4052L16.7159 14.899L16.3302 15.2847ZM4.97111 21.7389L5.24002 22.2135L5.24057 22.2131L4.97111 21.7389ZM4.09967 21.4546C3.9548 21.4546 3.85321 21.4103 3.77801 21.3424L3.04719 22.1523C3.33823 22.415 3.7063 22.5455 4.09967 22.5455V21.4546ZM4.14525 21.4535C4.12869 21.4543 4.11341 21.4546 4.09967 21.4546V22.5455C4.13258 22.5455 4.16536 22.5447 4.19747 22.5431L4.14525 21.4535ZM3.79861 22.0191L13.4318 12.3857L12.6604 11.6143L3.02721 21.2478L3.79861 22.0191ZM12.6603 12.3857L15.8721 15.598L16.6436 14.8267L13.4318 11.6143L12.6603 12.3857ZM3.77701 21.3416C3.77038 21.3356 3.76236 21.3278 3.75284 21.3179L2.96723 22.0748C2.99053 22.099 3.01594 22.124 3.04337 22.149L3.77701 21.3416ZM3.79829 21.3617C3.7873 21.3507 3.76388 21.3281 3.73101 21.3041L3.08937 22.1864C3.07144 22.1734 3.05793 22.1618 3.05011 22.1549C3.04162 22.1474 3.03391 22.1401 3.02691 22.1331L3.79829 21.3617ZM3.74573 21.3107C3.75153 21.3165 3.75587 21.3211 3.75774 21.3231C3.75873 21.3242 3.75944 21.3249 3.75955 21.325C3.75959 21.3251 3.75964 21.3252 3.75948 21.325C3.75937 21.3249 3.7591 21.3246 3.75879 21.3242C3.75766 21.323 3.75435 21.3194 3.75013 21.315C3.74575 21.3104 3.73979 21.3044 3.73254 21.2974L2.97773 22.085C2.97142 22.079 2.96634 22.0738 2.96282 22.0701C2.95945 22.0666 2.95695 22.0639 2.95661 22.0635C2.9565 22.0634 2.95643 22.0633 2.95652 22.0634C2.95656 22.0635 2.9568 22.0638 2.95704 22.064C2.95754 22.0645 2.95864 22.0657 2.96001 22.0672C2.96266 22.0701 2.96777 22.0755 2.97434 22.0821L3.74573 21.3107ZM3.74083 22.0769L3.79861 22.0191L3.02721 21.2478L2.96944 21.3055L3.74083 22.0769ZM15.8722 15.598L15.9445 15.6704L16.7159 14.899L16.6436 14.8267L15.8722 15.598ZM4.70219 21.2643C4.4739 21.3937 4.284 21.4455 4.14019 21.4537L4.20254 22.5429C4.54768 22.5231 4.89913 22.4066 5.24002 22.2135L4.70219 21.2643ZM16.0607 14.8104L4.70164 21.2647L5.24057 22.2131L16.5996 15.7589L16.0607 14.8104Z" fill="#CF2D1E" mask="url(#path-2-inside-1_0:658)"/>
<path d="M20.6773 12.0004V12.0013C20.6773 12.0948 20.6566 12.1913 20.612 12.2893L20.6097 12.2941C20.6097 12.2942 20.6096 12.2943 20.6096 12.2943C20.5185 12.4913 20.3257 12.7014 20.0003 12.8862L16.3764 14.945L13.432 12.0002L16.3764 9.05559L20.0004 11.1146L20.0004 11.1147C20.4945 11.3952 20.6777 11.7264 20.6773 11.9994L20.6773 12.0004Z" fill="white" stroke="#CF2D1E" stroke-width="0.545455"/>
<path d="M3.77146 2.33965L3.6055 2.17369L3.60525 2.17344L3.5696 2.1376C3.72144 2.04827 3.89796 2.00114 4.09288 2H4.09863C4.10957 2 4.12057 2.00014 4.13162 2.00044C4.38663 2.0069 4.67122 2.09096 4.97128 2.2613L3.41362 2.36457L3.41215 2.36604L3.41363 2.36457L3.55262 2.49725C3.56703 2.48215 3.57927 2.46994 3.59064 2.45951C3.59147 2.45879 3.5924 2.45799 3.59339 2.4571L3.59358 2.45731L3.59738 2.45352C3.64926 2.40713 3.70727 2.36885 3.77146 2.33965ZM3.77146 2.33965C3.86558 2.29684 3.97297 2.27353 4.09372 2.27273H4.09863C4.10717 2.27273 4.11578 2.27284 4.12445 2.27307L4.12471 2.27308C4.32532 2.27816 4.5663 2.34503 4.83654 2.49842C4.83658 2.49844 4.83661 2.49846 4.83664 2.49847L15.8841 8.77602M3.77146 2.33965L13.0462 11.6142M15.8841 8.77602L13.0462 11.6142M15.8841 8.77602L13.0462 11.6142M15.8841 8.77602L13.0462 11.6142" fill="white" stroke="#CF2D1E" stroke-width="0.545455"/>
<path d="M3.2717 3.27086C3.28472 3.05375 3.32958 2.87583 3.39487 2.73446L12.6605 11.9999L3.39518 21.2652C3.31701 21.0963 3.26813 20.8755 3.26813 20.5988V3.39662C3.26813 3.37172 3.26857 3.34718 3.26942 3.3231L3.2717 3.31703V3.27086Z" fill="white" stroke="#CF2D1E" stroke-width="0.545455"/>
</svg>

<svg width="24" height="24" fill="none" xmlns="http://www.w3.org/2000/svg"><mask id="a" fill="#fff"><path d="M4.1 22zm0-.114a1 1 0 01-.687-.252L13.046 12l3.212 3.212L4.97 21.625c-.312.177-.608.261-.871.261zm-.69-.14a1.08 1.08 0 01-.05-.05l.05.05z"/><path d="M4.1 22c-.269 0-.504-.087-.687-.253l-.003-.002-.05-.049-.005-.005.058-.057a1 1 0 00.687.252c.263 0 .559-.084.871-.26l11.287-6.414.072.073-11.359 6.454a1.859 1.859 0 01-.8.26 1.425 1.425 0 01-.07.001z"/></mask><path d="M4.1 22zm0-.114a1 1 0 01-.687-.252L13.046 12l3.212 3.212L4.97 21.625c-.312.177-.608.261-.871.261zm-.69-.14a1.08 1.08 0 01-.05-.05l.05.05z" fill="#fff"/><path d="M4.1 22c-.269 0-.504-.087-.687-.253l-.003-.002-.05-.049-.005-.005.058-.057a1 1 0 00.687.252c.263 0 .559-.084.871-.26l11.287-6.414.072.073-11.359 6.454a1.859 1.859 0 01-.8.26 1.425 1.425 0 01-.07.001z" fill="#fff"/><path d="M4.1 21.886v-.273.273zm.871-.26l.135.236-.135-.237zm-1.741.324c.237.214.54.323.87.323v-.546a.73.73 0 01-.505-.182l-.365.405zm.87.323c.028 0 .057 0 .085-.002l-.027-.545-.058.001v.546zm0-.66a.727.727 0 01-.504-.182l-.366.405c.237.214.539.323.87.323v-.546zm12.023-6.638L4.836 21.388l.27.474 11.287-6.412-.27-.475zM4.837 21.388c-.282.16-.532.225-.737.225v.546c.32 0 .662-.102 1.006-.296l-.27-.475zm-1.667.504l.05.049.38-.391-.05-.049-.38.39zm.243-.145l-.386.386.01.01.01.01.366-.406zm.758.251l.026.545h.006l-.032-.545zm-.758-.364l.386.385-.386-.385zM13.046 12l.386-.386-.386-.385-.386.385.386.386zm3.212 3.212l-.386.386.386-.386zM3.41 21.745l-.367.404.022.02.024.017.321-.44zm-.05-.049l.393-.378-.007-.007-.386.385zm-.005-.005l-.386-.386-.394.395.403.385.377-.394zm12.975-6.406l.27.474.622-.354-.506-.506-.386.386zM4.971 21.739l.269.474-.269-.474zm-.871-.284a.457.457 0 01-.322-.113l-.73.81c.29.263.658.393 1.052.393v-1.09zm.045-.002a.945.945 0 01-.045.002v1.09c.033 0 .065 0 .097-.002l-.052-1.09zm-.346.566l9.633-9.633-.772-.772-9.633 9.634.772.771zm8.861-9.633l3.212 3.212.772-.771-3.212-3.213-.772.772zm-8.883 8.956a.496.496 0 01-.024-.024l-.786.757.076.074.734-.807zm.021.02a.574.574 0 00-.067-.058l-.642.882a.522.522 0 01-.062-.053l.771-.771zm-.052-.051a.523.523 0 01.014.014h-.001l-.009-.01a.611.611 0 00-.017-.018l-.755.788a.422.422 0 01-.021-.021l.003.003a.526.526 0 00.014.015l.772-.771zm-.005.766l.058-.058-.772-.771-.058.057.772.772zm12.131-6.479l.072.072.772-.771-.072-.072-.772.771zm-11.17 5.666c-.228.13-.418.181-.562.19l.063 1.089c.345-.02.696-.136 1.037-.33l-.538-.949zm11.359-6.454L4.7 21.265l.54.948L16.6 15.76l-.54-.949z" fill="#CF2D1E" mask="url(#a)"/><path d="M20.677 12v.001c0 .094-.02.19-.065.288l-.002.005s0 0 0 0c-.091.197-.284.407-.61.592l-3.624 2.059L13.432 12l2.944-2.944L20 11.115h0c.494.28.678.611.677.884V12zM3.771 2.34l-.165-.166h0l-.036-.036c.151-.09.328-.137.523-.138h.039c.255.007.54.091.84.261l-1.558.104-.002.001.002-.001.139.132a.811.811 0 01.038-.037l.002-.003h0l.004-.003a.687.687 0 01.174-.114zm0 0a.783.783 0 01.323-.067H4.124c.201.005.442.072.713.225 0 0 0 0 0 0l11.047 6.278M3.771 2.34l9.275 9.274m2.838-2.838l-2.838 2.838m2.838-2.838l-2.838 2.838m2.838-2.838l-2.838 2.838M3.272 3.27a1.49 1.49 0 01.123-.536L12.66 12l-9.266 9.265a1.584 1.584 0 01-.127-.666V3.397l.001-.074.003-.006v-.046z" fill="#fff" stroke="#CF2D1E" stroke-width=".545"/></svg>
